!!!OTL: Der Kriegerstand.
!!!OTL-incipit: ES LEBE HOCH DER KRIEGERSTAND
!!!COM: Ges. v. H. Langer
!!!ARE: Europa, Mitteleuropa, Deutschland
!!!SCT: F0652
!!!TXL: @@DE
!!!YEM: Copyright 1995, estate of Helmut Schaffrath.
**kern	**text
*ICvox	*
*M4/4	*
*met(c)	*
*k[f#c#]	*
*D:	*
!LO:TX:a:t=Marschbewegung.	!
!LO:TX:a:t=Für vier Männerſtimmen.	!
{8d	Es
8d	le-
8d	-be
=1	=1
4.a	hoch
8a	der
(4a	Krie-
8b/)	.
8cc#/	-ger-
=2	=2
4dd/	-ſtand!
4r	.
8r}	.
{8f#	Es
8d	le-
8f#	-be
=3	=3
4.a	hoch
8a	der
4a	Krie-
4dd/	-ger-
=4	=4
2cc#/;	-ſtand!
4r}	.
{8cc#/	Jſt
8b/	ſein
=5	=5
4a	Loos
8e	auch
8e	Ge-
4cc#/	-fahr
8b/	und
8b/	Ent-
=6	=6
4a	-beh-
4e	-ren,
4r}	.
{8cc#/	kämpft
8b/	er
=7	=7
4a	doch
8e	für
8e	das
4.cc#/	Va-
8b/	-ter-
=8	=8
2a	-land.
4r}	.
{4a	Dem
=9	=9
4dd/	Soh-
8dd/	-ne
8dd/	des
8dd/	1-3._Ruhmes
8ee/	.
8ff#/	und
8dd/	der
=10	=10
2a	Eh-
4f#}	-re
{8b/	rei-
8a	-chet
=11	=11
8aL	je-
8gJ	.
4g	-der
8gL	freundlich
8bJ	.
8a	.
8g	die
=12	=12
2f#	Hand,
4r}	.
{4a	dem
=13	=13
4dd/	Soh-
8dd/	-ne
8dd/	des
8dd/	Ruh-
8ee/	-mes
8ff#/	und
8dd/	der
=14	=14
2a	Eh-
4f#}	-re
{8b/	rei-
8a	-chet
=15	=15
8aL	je-
8gJ	.
4g	-der
8gL	freund-
8bJ	.
8a	-lich
8g	die
=16	=16
2f#	Hand.
8r}	.
{8a	Es
8b/	le-
8cc#	-be
=17	=17
2dd/	hoch,
8r	.
8f#	es
8g	le-
8a	-be
=18	=18
4b	hoch,
4r	.
8r}	.
{8ee/	es
8ee/	le-
8ee/	-be
=19	=19
4.ff#/	hoch
8ff#/	der
4.ee/	Krie-
8ee/	-ger-
=20	=20
2dd	-stand!
8r;}	.
==	==
!!!AGN: Soldaten - Lied, national
!!!ONB: ESAC (Essen Associative Code) Database: FINK
!!!AMT: simple quadruple
!!!AIN: vox
!!!EED: Helmut Schaffrath
!!!EEV: 1.0
!!!GTL: Soldaten- und Jaegerlieder
!!Text: Volkslied
!!!source: Musikalischer Hausschatz der Deutschen. Eine Sammlung von über 1000 Liedern und Gesängen mit Singstimmen und Klavierbegleitung. Leipzig, Litterarisches Verlags-Haus.
!!!page: 429
!!!ENC: Anna Maria Matuszewska
!!!EEV: 2025/03/18
*-	*-
